X:099
T:Speed The Plough  WES.099
M:C
L:1/8
R:Reel
Q:1/2=80
B:T.Westrop’s 120 Country Dances, 1860’s
Z:VMP-R.Greig 2010
K:A
A2(Ac) efec|eaec efec|dedB cdcA|(FB)(BA) GABc|A2(Ac) efec|
eaec efec|decd BcAB|GABcA2z2||{efg}a2 (ag) aAce|aAgA fAeA|
dedB cdcA|(FB)(BA) (GB)B2|a2(ag) aecA|fgaf ecBA|decd BcAB|GABcA2z2|]

